X: 20201
T: CONTINENTAL MARCH
C:
%R: march, reel
B: Elias Howe "The Musician's Companion" 1843 p.20 #1
S: http://imslp.org/wiki/The_Musician's_Companion_(Howe,_Elias)
Z: 2015 John Chambers <jc:trillian.mit.edu>
N: Bar 15 is missing the first triplet annotation; fixed.
M: C|
L: 1/8
K: Bb
% - - - - - - - - - - - - - - - - - - - - - - - - -
V: 1 staves=3
f>e |\
dBdf b2ag | f2f>f f2f>e | dBdf bfdB | c2c>c c2f>e |\
dBdf b2ag | f2f>f f2e2 | (3(def) (3(gfe) d2c2 | B2B>B B2 :|
|: f>e |\
dBdB dBed | cBAB c2f>e | dBdf bfdB | c2c>c c2f>e |\
dBdf b2bg | f2f>f f2e2 | (3def (3(gfe) d2c2 | B2B>B B2 :|
% - - - - - - - - - - - - - - - - - - - - - - - - -
V: 2
d>c |\
BFBd e2dc | B2B>B B2d>c | BFBF edcB | A2A>A A2d>c |\
BF[dB]d g2fe | d2d>d d2c2 | (3(Bcd) (3(edc) B2A2 | B2B>B B2 :|
|: d>c |\
BFBF BFBF | AGFG A2d>c | BFBd edcB | A2A>A A2d>c |\
BFBd g2f>e | d2d>d d2c2 | (3(Bcd) (3(edc) B2A2 | B2B>B B2 :|
% - - - - - - - - - - - - - - - - - - - - - - - - -
V: 3 clef=bass middle=d
B>B |\
B2cd e2dc | B2B>B B2B>B | B2AB cBAG | F2F>F F2B2 |\
B2B2 e2dc | B2B>B B2z2 | B2e2 f2F2 | B2B>B B2 :|
|: B2 |\
B2B2 B2B2 | FFFF F2z2 | BBBB edcB | F2F>F F2z2 |\
B2Bc d2B2 | f2f>f f2z2 | e2c2 f2F2 | B2B>B B2 :|
% - - - - - - - - - - - - - - - - - - - - - - - - -

%%sep 1 1 500

